X: 1
T:Pat: in His Glory -- Jig
M:6/8
L:1/8
R:jig
B:Ryan's Mammoth Collection
Z:Contributed by Ray Davies. ray:davies99.freeserve.co.uk 28june02
K:G
uD|GBd g2d|ed^c d2B|cBA BAG|AB^c d2D|
GBd g2d|ed^c d2B|ded fef|edc d2::
uB|dBA B2G|dcA B2G|def gfe|dcB A2B|
c2e efg|B2d dBG|Aa(g {g}f)ef|gba g2:|
